**harmony	**harte	**kern	**silbe	**rhyme	**timestamp	**phrase	**leadinstrument
*M4/4	*M4/4	*ICvox	*	*	*	*	*
*	*	*VRlead	*	*	*	*	*
*	*	*Hstimme	*	*	*	*	*
*G:	*G:	*G:	*	*	*	*	*
*	*	*M4/4	*	*	*	*	*
*	*	*clefF4	*	*	*	*	*
1r;	1r	r;	.	.	0	.	r
=1	=1	=1	=1	=1	=1	=1	=1
*>Letter>A	*>Letter>A	*>Letter>A	*>Letter>A	*>Letter>A	*>Letter>A	*>Letter>A	*>Letter>A
*>Label>Intro	*>Label>Intro	*>Label>Intro	*>Label>Intro	*>Label>Intro	*>Label>Intro	*>Label>Intro	*>Label>Intro
1GM	G:maj	1r	.	.	1.873	newline	guitar
=2	=2	=2	=2	=2	=2	=2	=2
1Amm	A:min7(11)	1r	.	.	5.566	.	guitar
=3	=3	=3	=3	=3	=3	=3	=3
1GM	G:maj	1r	.	.	9.259	.	guitar
=4	=4	=4	=4	=4	=4	=4	=4
1Amm	A:min7(11)	1r	.	.	12.952	.	guitar
=5	=5	=5	=5	=5	=5	=5	=5
1GM	G:maj	1r	.	.	16.645	.	guitar
=6	=6	=6	=6	=6	=6	=6	=6
*>Letter>B	*>Letter>B	*>Letter>B	*>Letter>B	*>Letter>B	*>Letter>B	*>Letter>B	*>Letter>B
*>Label>Verse	*>Label>Verse	*>Label>Verse	*>Label>Verse	*>Label>Verse	*>Label>Verse	*>Label>Verse	*>Label>Verse
1Bm	B:min	4r	.	.	20.338	newline	voice
.	.	[2d	Child-	A	.	.	.
.	.	16d]	_	.	.	.	.
.	.	8.e	-hood	.	.	.	.
=7	=7	=7	=7	=7	=7	=7	=7
1GM	G:maj	16B	liv-	.	24.008	.	voice
.	.	4..B	-ing	.	.	.	.
.	.	2r	.	.	.	.	.
=8	=8	=8	=8	=8	=8	=8	=8
1Bm	B:min	4r	.	.	27.677	.	voice
.	.	8r	.	.	.	.	.
.	.	16B	It's	.	.	.	.
.	.	[16f#	ea-	.	.	.	.
.	.	8f#]	_	.	.	.	.
.	.	8.d	_	.	.	.	.
.	.	16B	-sy	.	.	.	.
.	.	16A	to	.	.	.	.
.	.	[16B	do	B	.	.	.
=9	=9	=9	=9	=9	=9	=9	=9
1GM	G:maj	2.B]	_	.	31.347	.	voice
.	.	4r	.	.	.	.	.
=10	=10	=10	=10	=10	=10	=10	=10
1Am	A:min	4r	.	.	35.016	newline	voice
.	.	8r	.	.	.	.	.
.	.	16G	The	.	.	.	.
.	.	4.A	things	.	.	.	.
.	.	[8.B	you	.	.	.	.
=11	=11	=11	=11	=11	=11	=11	=11
2.CM	C:maj	8B]	_	.	38.646	.	voice
.	.	16A	wan-	.	.	.	.
.	.	[16E	_	.	.	.	.
.	.	8E]	_	.	.	.	.
.	.	[8G	-ted	.	.	.	.
.	.	4G]	_	.	.	.	.
4DM	D:maj	4r	.	.	41.368	.	voice
=12	=12	=12	=12	=12	=12	=12	=12
1GM	G:maj	4r	.	.	42.276	.	voice
.	.	8r	.	.	.	.	.
.	.	16G	I	.	.	.	.
.	.	[16B	bought	.	.	.	.
.	.	8B]	_	.	.	.	.
.	.	16A	them	.	.	.	.
.	.	[16G	_	.	.	.	.
.	.	8G]	_	.	.	.	.
.	.	8G	for	.	.	.	.
=13	=13	=13	=13	=13	=13	=13	=13
2.DM	D:maj	16F#	you	B	45.905	.	voice
.	.	[8.A	_	.	.	.	.
.	.	2A]	_	.	.	.	.
4CM	C:maj	4r	.	.	48.628	.	voice
=14	=14	=14	=14	=14	=14	=14	=14
1Bm	B:min	4r	.	.	49.535	newline	voice
.	.	8r	.	.	.	.	.
.	.	4..d	Grace-	.	.	.	.
.	.	8.e	-less	.	.	.	.
=15	=15	=15	=15	=15	=15	=15	=15
1GM	G:maj	8.B	la-	.	53.063	.	voice
.	.	[16B	-dy	.	.	.	.
.	.	2B]	_	.	.	.	.
.	.	4r	.	.	.	.	.
=16	=16	=16	=16	=16	=16	=16	=16
1Bm	B:min	4r	.	.	56.592	.	voice
.	.	8r	.	.	.	.	.
.	.	16B	You	.	.	.	.
.	.	16f#	know	.	.	.	.
.	.	4d	_	.	.	.	.
.	.	16d	who	.	.	.	.
.	.	8.A	I	.	.	.	.
=17	=17	=17	=17	=17	=17	=17	=17
1GM	G:maj	2B	am	C	60.12	.	voice
.	.	2r	.	.	.	.	.
=18	=18	=18	=18	=18	=18	=18	=18
1Am	A:min	4r	.	.	63.648	newline	voice
.	.	8r	.	.	.	.	.
.	.	16G	You	.	.	.	.
.	.	[16A	know	.	.	.	.
.	.	8A]	_	.	.	.	.
.	.	4A	I	.	.	.	.
.	.	[8B	can't	.	.	.	.
=19	=19	=19	=19	=19	=19	=19	=19
2.CM	C:maj	16B]	_	.	67.101	.	voice
.	.	16A	let	.	.	.	.
.	.	8E	_	.	.	.	.
.	.	2G	you	.	.	.	.
4DM	D:maj	4r	.	.	69.691	.	voice
=20	=20	=20	=20	=20	=20	=20	=20
1GM	G:maj	2r	.	.	70.554	.	voice
.	.	4B	slide	.	.	.	.
.	.	16A	through	.	.	.	.
.	.	8.G	my	.	.	.	.
=21	=21	=21	=21	=21	=21	=21	=21
1DM	D:maj	16F#	hands	C	74.007	.	voice
.	.	[8.A	_	.	.	.	.
.	.	2A]	_	.	.	.	.
.	.	4r	.	.	.	.	.
=22	=22	=22	=22	=22	=22	=22	=22
*>Letter>C	*>Letter>C	*>Letter>C	*>Letter>C	*>Letter>C	*>Letter>C	*>Letter>C	*>Letter>C
*>Label>Chorus	*>Label>Chorus	*>Label>Chorus	*>Label>Chorus	*>Label>Chorus	*>Label>Chorus	*>Label>Chorus	*>Label>Chorus
1Am	A:min	2r	.	.	77.46	newline	voice
.	.	[2B	Wild	A	.	.	.
=23	=23	=23	=23	=23	=23	=23	=23
2.CM	C:maj	16B]	_	.	80.932	.	voice
.	.	16A	hors-	.	.	.	.
.	.	8E	_	.	.	.	.
.	.	2G	-es	.	.	.	.
4DM	D:maj	4r	.	.	83.536	.	voice
=24	=24	=24	=24	=24	=24	=24	=24
2GM	G:maj	4r	.	.	84.404	.	voice
.	.	8B	coul-	.	.	.	.
.	.	8B	-d'nt	.	.	.	.
2FM	F:maj	8A	drive	.	86.14	.	voice
.	.	8.B	me	.	.	.	.
.	.	8.A	a-	.	.	.	.
=25	=25	=25	=25	=25	=25	=25	=25
2.CM	C:maj	16E	-way	.	87.876	.	voice
.	.	4..G	_	.	.	.	.
.	.	2r	.	.	.	.	.
4Bm	B:min	.	.	.	90.48	.	voice
=26	=26	=26	=26	=26	=26	=26	=26
1Am	A:min	2r	.	.	91.348	newline	voice
.	.	[4B	Wild	A	.	.	.
.	.	16B]	_	.	.	.	.
.	.	[8.B	wild	A	.	.	.
=27	=27	=27	=27	=27	=27	=27	=27
2.CM	C:maj	8B]	_	.	94.751	.	voice
.	.	16A	hors-	.	.	.	.
.	.	8E	_	.	.	.	.
.	.	[8.G	-es	.	.	.	.
.	.	8.G]	_	.	.	.	.
.	.	16r	.	.	.	.	.
4DM	D:maj	4r	.	.	97.304	.	voice
=28	=28	=28	=28	=28	=28	=28	=28
2GM	G:maj	4r	.	.	98.155	.	voice
.	.	8B	coul-	.	.	.	.
.	.	8B	-'dnt	.	.	.	.
2FM	F:maj	8A	drag	.	99.856	.	voice
.	.	8.B	me	.	.	.	.
.	.	8.A	a-	.	.	.	.
=29	=29	=29	=29	=29	=29	=29	=29
1CM	C:maj	8E	-way	.	101.558	.	voice
.	.	4.G	_	.	.	.	.
.	.	2r	.	.	.	.	.
=30	=30	=30	=30	=30	=30	=30	=30
*>Letter>B	*>Letter>B	*>Letter>B	*>Letter>B	*>Letter>B	*>Letter>B	*>Letter>B	*>Letter>B
*>Label>Verse	*>Label>Verse	*>Label>Verse	*>Label>Verse	*>Label>Verse	*>Label>Verse	*>Label>Verse	*>Label>Verse
1Bm	B:min	2r	.	.	104.961	newline	voice
.	.	8d	I	A	.	.	.
.	.	8.d	watched	.	.	.	.
.	.	8.e	you	.	.	.	.
=31	=31	=31	=31	=31	=31	=31	=31
1GM	G:maj	16r	.	.	108.386	.	voice
.	.	8B	su-	.	.	.	.
.	.	[16B	-ffer	.	.	.	.
.	.	4.B]	_	.	.	.	.
.	.	8r	.	.	.	.	.
.	.	4r	.	.	.	.	.
=32	=32	=32	=32	=32	=32	=32	=32
1Bm	B:min	4r	.	.	111.812	.	voice
.	.	8r	.	.	.	.	.
.	.	16B	a	.	.	.	.
.	.	16f#	dull	.	.	.	.
.	.	8d	_	.	.	.	.
.	.	8.d	ach-	.	.	.	.
.	.	[8.B	-ing	.	.	.	.
=33	=33	=33	=33	=33	=33	=33	=33
1GM	G:maj	8B]	_	.	115.238	.	voice
.	.	16A	pain	D	.	.	.
.	.	[16B	_	.	.	.	.
.	.	2B]	_	.	.	.	.
.	.	4r	.	.	.	.	.
=34	=34	=34	=34	=34	=34	=34	=34
1Am	A:min	2r	.	.	118.664	newline	voice
.	.	8A	Now	.	.	.	.
.	.	8.A	you	.	.	.	.
.	.	[8.B	de-	.	.	.	.
=35	=35	=35	=35	=35	=35	=35	=35
2.CM	C:maj	16B]	_	.	122.022	.	voice
.	.	16A	-cid-	.	.	.	.
.	.	8.E	_	.	.	.	.
.	.	2G	-ed	.	.	.	.
4DM	D:maj	.	.	.	124.541	.	voice
.	.	8.r	.	.	.	.	.
=36	=36	=36	=36	=36	=36	=36	=36
1GM	G:maj	4r	.	.	125.381	.	voice
.	.	8r	.	.	.	.	.
.	.	16G	to	.	.	.	.
.	.	[16B	show	.	.	.	.
.	.	8B]	_	.	.	.	.
.	.	4A	me	.	.	.	.
.	.	8G	the	.	.	.	.
=37	=37	=37	=37	=37	=37	=37	=37
2.DM	D:maj	16F#	same	D	128.74	.	voice
.	.	[8.A	_	.	.	.	.
.	.	2A]	_	.	.	.	.
4CM	C:maj	4r	.	.	131.259	.	voice
=38	=38	=38	=38	=38	=38	=38	=38
1Bm	B:min	4r	.	.	132.098	newline	voice
.	.	8r	.	.	.	.	.
.	.	4d	No	.	.	.	.
.	.	8.d	swee-	.	.	.	.
.	.	[8.e	-ping	.	.	.	.
=39	=39	=39	=39	=39	=39	=39	=39
1GM	G:maj	8e]	_	.	135.477	.	voice
.	.	8.B	ex-	.	.	.	.
.	.	4..B	-its	.	.	.	.
.	.	4r	.	.	.	.	.
=40	=40	=40	=40	=40	=40	=40	=40
1Bm	B:min	4.r	.	.	138.855	.	voice
.	.	8f#	or	.	.	.	.
.	.	16d	_	.	.	.	.
.	.	4d	off	.	.	.	.
.	.	[8.B	stage	D	.	.	.
=41	=41	=41	=41	=41	=41	=41	=41
1GM	G:maj	8B]	_	.	142.234	.	voice
.	.	[8B	lines	A	.	.	.
.	.	2B]	_	.	.	.	.
.	.	4r	.	.	.	.	.
=42	=42	=42	=42	=42	=42	=42	=42
1Am	A:min	4r	.	.	145.612	newline	voice
.	.	8r	.	.	.	.	.
.	.	16G	could	.	.	.	.
.	.	[16A	make	.	.	.	.
.	.	8A]	_	.	.	.	.
.	.	8.A	me	.	.	.	.
.	.	8.B	feel	.	.	.	.
=43	=43	=43	=43	=43	=43	=43	=43
2.CM	C:maj	8B	_	.	148.967	.	voice
.	.	16A	bi-	.	.	.	.
.	.	[16E	_	.	.	.	.
.	.	16E]	_	.	.	.	.
.	.	2G	-tter	.	.	.	.
4DM	D:maj	.	.	.	151.483	.	voice
.	.	16r	.	.	.	.	.
.	.	8r	.	.	.	.	.
=44	=44	=44	=44	=44	=44	=44	=44
1GM	G:maj	4r	.	.	152.322	.	voice
.	.	8r	.	.	.	.	.
.	.	16D	or	.	.	.	.
.	.	8.B	treat	.	.	.	.
.	.	8.A	you	.	.	.	.
.	.	8.G	un-	.	.	.	.
=45	=45	=45	=45	=45	=45	=45	=45
1DM	D:maj	16F#	-kind	A	155.677	.	voice
.	.	[8.A	_	.	.	.	.
.	.	2A]	_	.	.	.	.
.	.	4r	.	.	.	.	.
=46	=46	=46	=46	=46	=46	=46	=46
*>Letter>C	*>Letter>C	*>Letter>C	*>Letter>C	*>Letter>C	*>Letter>C	*>Letter>C	*>Letter>C
*>Label>Chorus	*>Label>Chorus	*>Label>Chorus	*>Label>Chorus	*>Label>Chorus	*>Label>Chorus	*>Label>Chorus	*>Label>Chorus
1Am	A:min	2r	.	.	159.032	newline	voice
.	.	[2B	Wild	A	.	.	.
=47	=47	=47	=47	=47	=47	=47	=47
2.CM	C:maj	16B]	_	.	162.398	.	voice
.	.	16A	hors-	.	.	.	.
.	.	8E	_	.	.	.	.
.	.	4.G	-es	.	.	.	.
.	.	8r	.	.	.	.	.
4DM	D:maj	4r	.	.	164.922	.	voice
=48	=48	=48	=48	=48	=48	=48	=48
2GM	G:maj	4r	.	.	165.763	.	voice
.	.	8B	coul-	.	.	.	.
.	.	8B	-d'nt	.	.	.	.
2FM	F:maj	8A	drive	.	167.446	.	voice
.	.	8.B	me	.	.	.	.
.	.	8.A	a-	.	.	.	.
=49	=49	=49	=49	=49	=49	=49	=49
2.CM	C:maj	8E	-way	D	169.129	.	voice
.	.	4.G	_	.	.	.	.
.	.	2r	.	.	.	.	.
4Bm	B:min	.	.	.	171.653	.	voice
=50	=50	=50	=50	=50	=50	=50	=50
1Am	A:min	2r	.	.	172.495	newline	voice
.	.	[4B	Wild	A	.	.	.
.	.	16B]	_	.	.	.	.
.	.	[8.B	wild	A	.	.	.
=51	=51	=51	=51	=51	=51	=51	=51
2.CM	C:maj	8B]	_	.	175.762	.	voice
.	.	16A	hors-	.	.	.	.
.	.	8E	_	.	.	.	.
.	.	[8.G	-es	.	.	.	.
.	.	8G]	_	.	.	.	.
.	.	8r	.	.	.	.	.
4DM	D:maj	4r	.	.	178.212	.	voice
=52	=52	=52	=52	=52	=52	=52	=52
2GM	G:maj	4r	.	.	179.029	.	voice
.	.	8B	coul-	.	.	.	.
.	.	8B	-'dnt	.	.	.	.
2FM	F:maj	8A	drag	.	180.662	.	voice
.	.	8.B	me	.	.	.	.
.	.	8.A	a-	.	.	.	.
=53	=53	=53	=53	=53	=53	=53	=53
1CM	C:maj	8E	-way	D	182.295	.	voice
.	.	4.G	_	.	.	.	.
.	.	2r	.	.	.	.	.
=54	=54	=54	=54	=54	=54	=54	=54
*>Letter>D	*>Letter>D	*>Letter>D	*>Letter>D	*>Letter>D	*>Letter>D	*>Letter>D	*>Letter>D
*>Label>Solo	*>Label>Solo	*>Label>Solo	*>Label>Solo	*>Label>Solo	*>Label>Solo	*>Label>Solo	*>Label>Solo
1FM	F:maj	1r	.	.	185.562	newline	guitar
=55	=55	=55	=55	=55	=55	=55	=55
1CM	C:maj	1r	.	.	188.742	.	guitar
=56	=56	=56	=56	=56	=56	=56	=56
1FM	F:maj	1r	.	.	191.922	.	guitar
=57	=57	=57	=57	=57	=57	=57	=57
2.CM	C:maj	1r	.	.	195.103	.	guitar
4DM	D:maj	.	.	.	197.488	.	guitar
=58	=58	=58	=58	=58	=58	=58	=58
2.GM	G:maj	1r	.	.	198.283	newline	guitar
4Am	A:min/b7	.	.	.	200.783	.	guitar
=59	=59	=59	=59	=59	=59	=59	=59
1GM	G:maj	1r	.	.	201.616	.	guitar
=60	=60	=60	=60	=60	=60	=60	=60
*>Letter>B	*>Letter>B	*>Letter>B	*>Letter>B	*>Letter>B	*>Letter>B	*>Letter>B	*>Letter>B
*>Label>Verse	*>Label>Verse	*>Label>Verse	*>Label>Verse	*>Label>Verse	*>Label>Verse	*>Label>Verse	*>Label>Verse
1Bm	B:min	2r	.	.	204.949	newline	voice
.	.	8d	I	A	.	.	.
.	.	8d	know	.	.	.	.
.	.	[4e	I	.	.	.	.
=61	=61	=61	=61	=61	=61	=61	=61
1GM	G:maj	16e]	_	.	208.291	.	voice
.	.	[8.B	dreamed	.	.	.	.
.	.	8B]	_	.	.	.	.
.	.	4.B	you	.	.	.	.
.	.	4r	.	.	.	.	.
=62	=62	=62	=62	=62	=62	=62	=62
1Bm	B:min	4.r	.	.	211.634	.	voice
.	.	16B	a	.	.	.	.
.	.	16g	sin	.	.	.	.
.	.	16f#	_	.	.	.	.
.	.	4d	and	.	.	.	.
.	.	8A	a	.	.	.	.
.	.	[16B	lie	A	.	.	.
=63	=63	=63	=63	=63	=63	=63	=63
1GM	G:maj	2B]	_	.	214.976	.	voice
.	.	2r	.	.	.	.	.
=64	=64	=64	=64	=64	=64	=64	=64
1Am	A:min	4r	.	.	218.318	newline	voice
.	.	8r	.	.	.	.	.
.	.	4A	I	A	.	.	.
.	.	8.A	have	.	.	.	.
.	.	[8.B	my	.	.	.	.
=65	=65	=65	=65	=65	=65	=65	=65
2.CM	C:maj	16B]	_	.	221.566	.	voice
.	.	16A	free-	.	.	.	.
.	.	8E	_	.	.	.	.
.	.	4.G	-dom	.	.	.	.
.	.	8r	.	.	.	.	.
4DM	D:maj	4r	.	.	224.002	.	voice
=66	=66	=66	=66	=66	=66	=66	=66
1GM	G:maj	4r	.	.	224.814	.	voice
.	.	8r	.	.	.	.	.
.	.	16G	but	.	.	.	.
.	.	16G	I	.	.	.	.
.	.	8B	don't	.	.	.	.
.	.	16A	have	.	.	.	.
.	.	8G	_	.	.	.	.
.	.	8.G	much	.	.	.	.
=67	=67	=67	=67	=67	=67	=67	=67
2.DM	D:maj	16F#	time	A	228.062	.	voice
.	.	[8.A	_	.	.	.	.
.	.	4A]	_	.	.	.	.
.	.	2r	.	.	.	.	.
4CM	C:maj	.	.	.	230.498	.	voice
=68	=68	=68	=68	=68	=68	=68	=68
1Bm	B:min	4r	.	.	231.309	newline	voice
.	.	8r	.	.	.	.	.
.	.	[8d	Faith	.	.	.	.
.	.	8d]	_	.	.	.	.
.	.	8.d	has	.	.	.	.
.	.	8.e	been	.	.	.	.
=69	=69	=69	=69	=69	=69	=69	=69
1GM	G:maj	8r	.	.	234.556	.	voice
.	.	8.B	bro-	.	.	.	.
.	.	[16B	-ken	.	.	.	.
.	.	4B]	_	.	.	.	.
.	.	8r	.	.	.	.	.
.	.	4r	.	.	.	.	.
=70	=70	=70	=70	=70	=70	=70	=70
1Bm	B:min	4r	.	.	237.803	.	voice
.	.	8r	.	.	.	.	.
.	.	4f#	tears	.	.	.	.
.	.	8.d	must	.	.	.	.
.	.	8.A	be	.	.	.	.
=71	=71	=71	=71	=71	=71	=71	=71
1GM	G:maj	2B	cried	A	241.05	.	voice
.	.	2r	.	.	.	.	.
=72	=72	=72	=72	=72	=72	=72	=72
1Am	A:min	4r	.	.	244.297	newline	voice
.	.	8r	.	.	.	.	.
.	.	4A	Let's	.	.	.	.
.	.	8.A	do	.	.	.	.
.	.	[8.B	some	.	.	.	.
=73	=73	=73	=73	=73	=73	=73	=73
2.CM	C:maj	8B]	_	.	247.502	.	voice
.	.	16A	_	.	.	.	.
.	.	[16E	li-	.	.	.	.
.	.	16E]	_	.	.	.	.
.	.	[8.G	-ving	.	.	.	.
.	.	4G]	_	.	.	.	.
4DM	D:maj	4r	.	.	249.906	.	voice
=74	=74	=74	=74	=74	=74	=74	=74
1GM	G:maj	2r	.	.	250.708	.	voice
.	.	8B	af-	.	.	.	.
.	.	16A	-ter	.	.	.	.
.	.	8G	_	.	.	.	.
.	.	[8.G	we	.	.	.	.
=75	=75	=75	=75	=75	=75	=75	=75
1DM	D:maj	16G]	_	.	253.913	.	voice
.	.	16F#	die	A	.	.	.
.	.	[8A	_	.	.	.	.
.	.	2A]	_	.	.	.	.
.	.	4r	.	.	.	.	.
=76	=76	=76	=76	=76	=76	=76	=76
*>Letter>C	*>Letter>C	*>Letter>C	*>Letter>C	*>Letter>C	*>Letter>C	*>Letter>C	*>Letter>C
*>Label>Chorus	*>Label>Chorus	*>Label>Chorus	*>Label>Chorus	*>Label>Chorus	*>Label>Chorus	*>Label>Chorus	*>Label>Chorus
1Am	A:min	2r	.	.	257.118	newline	voice
.	.	[2B	Wild	A	.	.	.
=77	=77	=77	=77	=77	=77	=77	=77
2.CM	C:maj	16B]	_	.	260.322	.	voice
.	.	16A	hors-	.	.	.	.
.	.	8E	_	.	.	.	.
.	.	4.G	-es	.	.	.	.
.	.	8r	.	.	.	.	.
4DM	D:maj	4r	.	.	262.725	.	voice
=78	=78	=78	=78	=78	=78	=78	=78
2GM	G:maj	4r	.	.	263.526	.	voice
.	.	8B	coul-	.	.	.	.
.	.	8B	-d'nt	.	.	.	.
2FM	F:maj	8A	drive	.	265.128	.	voice
.	.	8.B	me	.	.	.	.
.	.	8.A	a-	.	.	.	.
=79	=79	=79	=79	=79	=79	=79	=79
2.CM	C:maj	8E	-way	D	266.73	.	voice
.	.	4.G	_	.	.	.	.
.	.	2r	.	.	.	.	.
4Bm	B:min	.	.	.	269.133	.	voice
=80	=80	=80	=80	=80	=80	=80	=80
1Am	A:min	2r	.	.	269.934	newline	voice
.	.	[4B	Wild	A	.	.	.
.	.	16B]	_	.	.	.	.
.	.	[8.B	wild	A	.	.	.
=81	=81	=81	=81	=81	=81	=81	=81
2.CM	C:maj	8B]	_	.	273.179	.	voice
.	.	16A	hors-	.	.	.	.
.	.	8E	_	.	.	.	.
.	.	[8.G	-es	.	.	.	.
.	.	8G]	_	.	.	.	.
.	.	8r	.	.	.	.	.
4DM	D:maj	4r	.	.	275.612	.	voice
=82	=82	=82	=82	=82	=82	=82	=82
2GM	G:maj	4r	.	.	276.423	.	voice
.	.	8r	.	.	.	.	.
.	.	8G	We'll	.	.	.	.
2FM	F:maj	8B	ride	A	278.045	.	voice
.	.	8.G	them	.	.	.	.
.	.	16A	some-	.	.	.	.
.	.	[8G	_	.	.	.	.
=83	=83	=83	=83	=83	=83	=83	=83
1CM	C:maj	16G]	_	.	279.667	.	voice
.	.	[8.G	-day	D	.	.	.
.	.	8G]	_	.	.	.	.
.	.	8r	.	.	.	.	.
.	.	2r	.	.	.	.	.
=84	=84	=84	=84	=84	=84	=84	=84
*>Letter>B2	*>Letter>B2	*>Letter>B2	*>Letter>B2	*>Letter>B2	*>Letter>B2	*>Letter>B2	*>Letter>B2
*>Label>Solo	*>Label>Solo	*>Label>Solo	*>Label>Solo	*>Label>Solo	*>Label>Solo	*>Label>Solo	*>Label>Solo
1Bm	B:min	1r	.	.	282.911	newline	guitar
=85	=85	=85	=85	=85	=85	=85	=85
1GM	G:maj	1r	.	.	286.157	.	guitar
=86	=86	=86	=86	=86	=86	=86	=86
1Bm	B:min	1r	.	.	289.404	.	guitar
=87	=87	=87	=87	=87	=87	=87	=87
1GM	G:maj	1r	.	.	292.65	.	guitar
=88	=88	=88	=88	=88	=88	=88	=88
1Am	A:min	1r	.	.	295.896	newline	guitar
=89	=89	=89	=89	=89	=89	=89	=89
2.CM	C:maj	1r	.	.	299.095	.	guitar
4DM	D:maj	.	.	.	301.494	.	guitar
=90	=90	=90	=90	=90	=90	=90	=90
1GM	G:maj	1r	.	.	302.294	.	guitar
=91	=91	=91	=91	=91	=91	=91	=91
1DM	D:maj	1r	.	.	305.493	.	guitar
=92	=92	=92	=92	=92	=92	=92	=92
*>Letter>C	*>Letter>C	*>Letter>C	*>Letter>C	*>Letter>C	*>Letter>C	*>Letter>C	*>Letter>C
*>Label>Chorus	*>Label>Chorus	*>Label>Chorus	*>Label>Chorus	*>Label>Chorus	*>Label>Chorus	*>Label>Chorus	*>Label>Chorus
1Am	A:min	2r	.	.	308.692	newline	guitar
.	.	[2B	Wild	A	.	.	.
=93	=93	=93	=93	=93	=93	=93	=93
2.CM	C:maj	8B]	_	.	311.865	.	guitar
.	.	16A	hors-	.	.	.	.
.	.	16E	_	.	.	.	.
.	.	4.G	-es	.	.	.	.
.	.	8r	.	.	.	.	.
4DM	D:maj	4r	.	.	314.245	.	guitar
=94	=94	=94	=94	=94	=94	=94	=94
2GM	G:maj	4r	.	.	315.038	.	guitar
.	.	8B	coul-	.	.	.	.
.	.	8B	-d'nt	.	.	.	.
2FM	F:maj	8A	drag	.	316.624	.	guitar
.	.	8.B	me	.	.	.	.
.	.	8.A	a-	.	.	.	.
=95	=95	=95	=95	=95	=95	=95	=95
2.CM	C:maj	8E	-way	D	318.211	.	guitar
.	.	4.G	_	.	.	.	.
.	.	2r	.	.	.	.	.
4Bm	B:min	.	.	.	320.591	.	guitar
=96	=96	=96	=96	=96	=96	=96	=96
1Am	A:min	2r	.	.	321.384	newline	voice
.	.	[4B	Wild	A	.	.	.
.	.	16B]	_	.	.	.	.
.	.	[8.B	wild	A	.	.	.
=97	=97	=97	=97	=97	=97	=97	=97
2.CM	C:maj	8B]	_	.	324.6	.	voice
.	.	16A	hors-	.	.	.	.
.	.	8E	_	.	.	.	.
.	.	[8.G	-es	.	.	.	.
.	.	8G]	_	.	.	.	.
.	.	8r	.	.	.	.	.
4DM	D:maj	4r	.	.	327.012	.	voice
=98	=98	=98	=98	=98	=98	=98	=98
2GM	G:maj	4r	.	.	327.816	.	voice
.	.	8r	.	.	.	.	.
.	.	8G	We'll	.	.	.	.
2FM	F:maj	8B	ride	A	329.424	.	voice
.	.	8.G	them	.	.	.	.
.	.	16A	some-	.	.	.	.
.	.	8G	_	.	.	.	.
=99	=99	=99	=99	=99	=99	=99	=99
1CM	C:maj	4.G	-day	D	331.032	.	voice
.	.	8r	.	.	.	.	.
.	.	2r	.	.	.	.	.
=100	=100	=100	=100	=100	=100	=100	=100
1GM	G:maj	1r	.	.	334.247	newline	guitar
1r;	1r	r;	.	.	340.939	.	r
1r;	1r	r;	.	.	344.137	.	r
*-	*-	*-	*-	*-	*-	*-	*-
!!!BillboardChartDate: 1971/06/19
!!!BillboardPeak: 28
!!!BillboardWeeksOnChart: 8
!!!COC: The Rolling Stones
!!!ENC: Nathaniel Condit-Schultz
!!!EST: Awating manual error checking and editing.
!!!OTL: Wild Horses
!!!RDF**chordsym: original McGill chord annotation + (implied pitch class set, with bass pitch in first position)
!!!RDF**harmony: **recip + pitch class of root + harmonic quality
!!!RDF**leadinstrument: original McGill primary instrumentation annotation
!!!RDF**phrase: newline = linebreak in original McGill transcription
!!!RDF**timestamp: McGill audio timestamp in seconds
!!!RDT: 2017/01/12/
!!!SampleActualRank: 85
!!!SampleID#: 0094
!!!SampleTargetRank: 83
!!!MBID: 1674d24d-8b74-4e65-94e5-e38527f593a9
